lib/assets/graphics/flags/ke.svg

<svg fill="none" height="32" viewBox="0 0 32 32" width="32" xmlns="http://www.w3.org/2000/svg" xmlns:xlink="http://www.w3.org/1999/xlink">
    <filter id="a" color-interpolation-filters="sRGB" filterUnits="userSpaceOnUse" height="24.4667" width="2.13333" x="15.3333" y="4.26667">
        <feFlood flood-opacity="0" result="BackgroundImageFix"/>
        <feColorMatrix in="SourceAlpha" type="matrix" values="0 0 0 0 0 0 0 0 0 0 0 0 0 0 0 0 0 0 127 0"/>
        <feOffset dy="1"/>
        <feColorMatrix type="matrix" values="0 0 0 0 0 0 0 0 0 0 0 0 0 0 0 0 0 0 0.06 0"/>
        <feBlend in2="BackgroundImageFix" mode="normal" result="effect1_dropShadow"/>
        <feBlend in="SourceGraphic" in2="effect1_dropShadow" mode="normal" result="shape"/>
    </filter>
    <mask id="b" height="32" maskUnits="userSpaceOnUse" width="32" x="0" y="0">
        <path d="m31.75 16c0 8.6985-7.0515 15.75-15.75 15.75-8.69849 0-15.75-7.0515-15.75-15.75 0-8.69849 7.05151-15.75 15.75-15.75 8.6985 0 15.75 7.05151 15.75 15.75z" fill="#fff" stroke="#fff" stroke-width=".5"/>
    </mask>
    <mask id="c" height="22" maskUnits="userSpaceOnUse" width="11" x="11" y="5">
        <path clip-rule="evenodd" d="m16.4 26.6667c2.1333 0 5.3333-4.1866 5.3333-10.6667 0-6.48014-3.2-10.66667-5.3333-10.66667s-5.3333 4.18653-5.3333 10.66667c0 6.4801 3.2 10.6667 5.3333 10.6667z" fill="#fff" fill-rule="evenodd"/>
    </mask>
    <path d="m31.75 16c0 8.6985-7.0515 15.75-15.75 15.75-8.69849 0-15.75-7.0515-15.75-15.75 0-8.69849 7.05151-15.75 15.75-15.75 8.6985 0 15.75 7.05151 15.75 15.75z" fill="#fff" stroke="#f8f8f8" stroke-width=".5"/>
    <g clip-rule="evenodd" fill-rule="evenodd" mask="url(#b)">
        <path d="m0 32h32v-10h-32z" fill="#060"/>
        <path d="m0 21h32v-10h-32z" fill="#b00"/>
        <path d="m0 10h32v-10h-32z" fill="#000"/>
    </g>
    <path clip-rule="evenodd" d="m16.4 26.6667c2.1333 0 5.3333-4.1866 5.3333-10.6667 0-6.48014-3.2-10.66667-5.3333-10.66667s-5.3333 4.18653-5.3333 10.66667c0 6.4801 3.2 10.6667 5.3333 10.6667z" fill="#b00" fill-rule="evenodd"/>
    <g mask="url(#c)">
        <path clip-rule="evenodd" d="m7.86667 27.7333c2.94553 0 5.33333-5.2532 5.33333-11.7333 0-6.48014-2.3878-11.73333-5.33333-11.73333-2.94552 0-5.33334 5.25319-5.33334 11.73333 0 6.4801 2.38782 11.7333 5.33334 11.7333z" fill="#000" fill-rule="evenodd"/>
        <path clip-rule="evenodd" d="m24.9333 27.7333c2.9456 0 5.3334-5.2532 5.3334-11.7333 0-6.48014-2.3878-11.73333-5.3334-11.73333-2.9455 0-5.3333 5.25319-5.3333 11.73333 0 6.4801 2.3878 11.7333 5.3333 11.7333z" fill="#000" fill-rule="evenodd"/>
        <g filter="url(#a)">
            <path clip-rule="evenodd" d="m17.4667 8.53333c0 2.35637-.4776 4.26667-1.0667 4.26667s-1.0667-1.9103-1.0667-4.26667c0-2.35641.4776-4.26666 1.0667-4.26666s1.0667 1.91025 1.0667 4.26666zm-1.0667 4.26667c-.5891 0-1.0667 1.4327-1.0667 3.2 0 1.7668.4773 3.1991 1.0662 3.2-.5889.0012-1.0662 1.911-1.0662 4.2667 0 2.3564.4776 4.2666 1.0667 4.2666s1.0667-1.9102 1.0667-4.2666-.4776-4.2667-1.0667-4.2667c.5891 0 1.0667-1.4327 1.0667-3.2s-.4776-3.2-1.0667-3.2z" fill="#fff" fill-rule="evenodd"/>
        </g>
    </g>
</svg>

<svg width="32" height="32" viewBox="0 0 32 32" fill="none" xmlns="http://www.w3.org/2000/svg">
<mask id="path-1-inside-1" fill="white">
<path d="M16 32C24.8366 32 32 24.8366 32 16C32 7.16344 24.8366 0 16 0C7.16344 0 0 7.16344 0 16C0 24.8366 7.16344 32 16 32Z"/>
</mask>
<path d="M16 32C24.8366 32 32 24.8366 32 16C32 7.16344 24.8366 0 16 0C7.16344 0 0 7.16344 0 16C0 24.8366 7.16344 32 16 32Z" fill="white" stroke="#F8F8F8" mask="url(#path-1-inside-1)"/>
<mask id="mask0" mask-type="alpha" maskUnits="userSpaceOnUse" x="0" y="0" width="32" height="32">
<mask id="path-2-inside-2" mask-type="luminance" fill="white">
<path d="M16 32C24.8366 32 32 24.8366 32 16C32 7.16344 24.8366 0 16 0C7.16344 0 0 7.16344 0 16C0 24.8366 7.16344 32 16 32Z"/>
</mask>
<path d="M16 32C24.8366 32 32 24.8366 32 16C32 7.16344 24.8366 0 16 0C7.16344 0 0 7.16344 0 16C0 24.8366 7.16344 32 16 32Z" fill="white" stroke="white" mask="url(#path-2-inside-2)"/>
</mask>
<g mask="url(#mask0)">
<path fill-rule="evenodd" clip-rule="evenodd" d="M0 32H32V22H0V32Z" fill="#006600"/>
<path fill-rule="evenodd" clip-rule="evenodd" d="M0 21H32V11H0V21Z" fill="#BB0000"/>
<path fill-rule="evenodd" clip-rule="evenodd" d="M0 10H32V0H0V10Z" fill="black"/>
</g>
<path fill-rule="evenodd" clip-rule="evenodd" d="M16.4 26.6667C18.5333 26.6667 21.7333 22.4801 21.7333 16C21.7333 9.51985 18.5333 5.33333 16.4 5.33333C14.2667 5.33333 11.0667 9.51985 11.0667 16C11.0667 22.4801 14.2667 26.6667 16.4 26.6667Z" fill="#BB0000"/>
<mask id="mask1" mask-type="alpha" maskUnits="userSpaceOnUse" x="11" y="5" width="11" height="22">
<path fill-rule="evenodd" clip-rule="evenodd" d="M16.4 26.6667C18.5333 26.6667 21.7333 22.4801 21.7333 16C21.7333 9.51985 18.5333 5.33333 16.4 5.33333C14.2667 5.33333 11.0667 9.51985 11.0667 16C11.0667 22.4801 14.2667 26.6667 16.4 26.6667Z" fill="white"/>
</mask>
<g mask="url(#mask1)">
<path fill-rule="evenodd" clip-rule="evenodd" d="M7.86666 27.7333C10.8122 27.7333 13.2 22.4801 13.2 16C13.2 9.51986 10.8122 4.26666 7.86666 4.26666C4.92114 4.26666 2.53333 9.51986 2.53333 16C2.53333 22.4801 4.92114 27.7333 7.86666 27.7333Z" fill="black"/>
<path fill-rule="evenodd" clip-rule="evenodd" d="M24.9333 27.7333C27.8788 27.7333 30.2666 22.4801 30.2666 16C30.2666 9.51986 27.8788 4.26666 24.9333 4.26666C21.9878 4.26666 19.6 9.51986 19.6 16C19.6 22.4801 21.9878 27.7333 24.9333 27.7333Z" fill="black"/>
<g filter="url(#filter0_d)">
<path fill-rule="evenodd" clip-rule="evenodd" d="M17.4667 8.53333C17.4667 10.8897 16.9891 12.8 16.4 12.8C15.8109 12.8 15.3334 10.8897 15.3334 8.53333C15.3334 6.17691 15.8109 4.26666 16.4 4.26666C16.9891 4.26666 17.4667 6.17691 17.4667 8.53333ZM16.4 12.8C15.8109 12.8 15.3334 14.2327 15.3334 16C15.3334 17.7668 15.8106 19.1991 16.3995 19.2C15.8106 19.2012 15.3334 21.111 15.3334 23.4667C15.3334 25.8231 15.8109 27.7333 16.4 27.7333C16.9891 27.7333 17.4667 25.8231 17.4667 23.4667C17.4667 21.1102 16.9891 19.2 16.4 19.2C16.9891 19.2 17.4667 17.7673 17.4667 16C17.4667 14.2327 16.9891 12.8 16.4 12.8Z" fill="url(#paint0_linear)"/>
</g>
</g>
<defs>
<filter id="filter0_d" x="15.3334" y="4.26666" width="2.13333" height="24.4667" filterUnits="userSpaceOnUse" color-interpolation-filters="sRGB">
<feFlood flood-opacity="0" result="BackgroundImageFix"/>
<feColorMatrix in="SourceAlpha" type="matrix" values="0 0 0 0 0 0 0 0 0 0 0 0 0 0 0 0 0 0 127 0"/>
<feOffset dy="1"/>
<feColorMatrix type="matrix" values="0 0 0 0 0 0 0 0 0 0 0 0 0 0 0 0 0 0 0.06 0"/>
<feBlend mode="normal" in2="BackgroundImageFix" result="effect1_dropShadow"/>
<feBlend mode="normal" in="SourceGraphic" in2="effect1_dropShadow" result="shape"/>
</filter>
<linearGradient id="paint0_linear" x1="15.3334" y1="4.26666" x2="15.3334" y2="27.7333" gradientUnits="userSpaceOnUse">
<stop stop-color="white"/>
<stop offset="1" stop-color="#F0F0F0"/>
</linearGradient>
</defs>
</svg>
